X:507
T: AUCH FUER DEN WINTER DANKEN WIR
N: F0972
O: Europa, Mitteleuropa, Deutschland
R: Natur -, Jahreszeiten - Lied, Winter
M: 3/4
L: 1/8
K: F
 | F,2F,2F,2 | G,4G,2 | C4B,2 | A,6 |
C2F2A2 | G4E2 | G2F2D2 | C4z2 |
G2F2E2 | F4C2 | C4B,2 | A,6 |
F2C2A,2 | D3B,G,G | F6 | E6 | F4z2

@@@ Tune index: 5938
